X:1
T:Title
%%score { 1 | ( 2 3 ) }
L:1/8
M:4/4
K:F
V:1 treble nm="Grand Piano"
V:2 bass 
V:3 bass 
V:1
 z4 z2[Q:1/4=108] C2 | F2 F2 [EG]2 [EG]2 | [FA]3 B c2 c2 | d2 c2 A2 F2 |[M:3/4] [EG]6 |[M:1/4] C2 | %6
[M:4/4] F2 F2 [EG]2 [EG]2 | A3 B c2 d2 | c2 F2 [FA]2 [EG]2 | F8 | d3 d f2 d2 | c3 d c2 A2 | %12
 d2 c2 A2 F2 | [FA]4 [EG]4 | F8 |] %15
V:2
 z4 z2 [F,A,]2 | [F,A,C]2 [F,A,C]2 [C,C]2 [C,C]2 | z2 z[K:treble] G A2 [A,CF]2 | %3
 [B,F]2 [A,CF]2[K:bass] [F,CF]2 [D,=B,]2 |[M:3/4] [C,C]6 |[M:1/4] [E,B,]2 | %6
[M:4/4] [F,A,C]2 [F,A,C]2 [C,C]2 [C,C]2 | [CF]4[K:treble] z4 | %8
 [A,CF]2[K:bass] [D,A,]2 [C,C]2 [C,B,]2 | [F,A,]8 | [B,F]3 [B,F] [B,DF]2 [B,F]2 | z4 [CF]4 | %12
 [B,F]2 [A,CF]2[K:bass] [F,CF]2 [D,=B,]2 | [C,C]4 [C,B,]4 | [F,A,]8 |] %15
V:3
 x8 | x8 | [F,C]6[K:treble] z2 | x4[K:bass] x4 |[M:3/4] x6 |[M:1/4] x2 |[M:4/4] x8 | %7
 F,3 A,[K:treble] [A,CF]2 [B,F]2 | x2[K:bass] x6 | x8 | x8 | [A,CF]3 [B,F] A,2 F,2 | %12
 x4[K:bass] x4 | x8 | x8 |] %15

